round/svg/slow_motion_video.svg

<svg xmlns="http://www.w3.org/2000/svg" width="24" height="24"><path d="M10 8.5v7c0 .41.47.65.8.4l4.67-3.5c.27-.2.27-.6 0-.8L10.8 8.1a.5.5 0 0 0-.8.4zm1-5.27c0-.64-.59-1.13-1.21-.99-1.12.26-2.18.7-3.12 1.3-.53.34-.61 1.1-.16 1.55.32.32.83.4 1.21.16.77-.49 1.62-.85 2.54-1.05.44-.1.74-.51.74-.97zM5.1 6.51c-.46-.45-1.21-.38-1.55.16-.6.94-1.04 2-1.3 3.12-.14.62.34 1.21.98 1.21.45 0 .87-.3.96-.74.2-.91.57-1.77 1.05-2.53.26-.39.18-.9-.14-1.22zM3.23 13c-.64 0-1.13.59-.99 1.21.26 1.12.7 2.17 1.3 3.12.34.54 1.1.61 1.55.16.32-.32.4-.83.15-1.21-.49-.76-.85-1.61-1.05-2.53-.09-.45-.5-.75-.96-.75zm3.44 7.45c.95.6 2 1.04 3.12 1.3.62.14 1.21-.35 1.21-.98 0-.45-.3-.87-.74-.96a7.97 7.97 0 0 1-2.53-1.05.972.972 0 0 0-1.21.16.972.972 0 0 0 .15 1.53zM22 12c0 4.73-3.3 8.71-7.73 9.74-.62.15-1.22-.34-1.22-.98 0-.46.31-.86.75-.97 3.55-.82 6.2-4 6.2-7.79s-2.65-6.97-6.2-7.79c-.44-.1-.75-.51-.75-.97 0-.64.6-1.13 1.22-.98C18.7 3.29 22 7.27 22 12z" fill="currentColor"/></svg>

<?xml version="1.0" encoding="utf-8"?>
<!-- Generator: Adobe Illustrator 19.1.0, SVG Export Plug-In . SVG Version: 6.00 Build 0)  -->
<svg version="1.1" xmlns="http://www.w3.org/2000/svg" xmlns:xlink="http://www.w3.org/1999/xlink" x="0px" y="0px" width="24px"
	 height="24px" viewBox="0 0 24 24" enable-background="new 0 0 24 24" xml:space="preserve">
<g id="Bounding_Boxes" display="none">
	<path display="inline" fill="none" d="M0,0h24v24H0V0z"/>
</g>
<g id="Rounded" fill="currentColor">
	<path d="M10,8.5v7c0,0.41,0.47,0.65,0.8,0.4l4.67-3.5c0.27-0.2,0.27-0.6,0-0.8L10.8,8.1C10.47,7.85,10,8.09,10,8.5z M11,3.23
		L11,3.23c0-0.64-0.59-1.13-1.21-0.99c-1.12,0.26-2.18,0.7-3.12,1.3c-0.53,0.34-0.61,1.1-0.16,1.55l0,0
		c0.32,0.32,0.83,0.4,1.21,0.16C8.49,4.76,9.34,4.4,10.26,4.2C10.7,4.1,11,3.69,11,3.23z M5.1,6.51L5.1,6.51
		C4.64,6.06,3.89,6.13,3.55,6.67c-0.6,0.94-1.04,2-1.3,3.12C2.11,10.41,2.59,11,3.23,11h0c0.45,0,0.87-0.3,0.96-0.74
		c0.2-0.91,0.57-1.77,1.05-2.53C5.5,7.34,5.42,6.83,5.1,6.51z M3.23,13L3.23,13c-0.64,0-1.13,0.59-0.99,1.21
		c0.26,1.12,0.7,2.17,1.3,3.12c0.34,0.54,1.1,0.61,1.55,0.16l0,0c0.32-0.32,0.4-0.83,0.15-1.21c-0.49-0.76-0.85-1.61-1.05-2.53
		C4.1,13.3,3.69,13,3.23,13z M6.67,20.45c0.95,0.6,2,1.04,3.12,1.3c0.62,0.14,1.21-0.35,1.21-0.98v0c0-0.45-0.3-0.87-0.74-0.96
		c-0.91-0.2-1.77-0.57-2.53-1.05c-0.39-0.24-0.89-0.17-1.21,0.16l0,0C6.06,19.36,6.13,20.11,6.67,20.45z M22,12
		c0,4.73-3.3,8.71-7.73,9.74c-0.62,0.15-1.22-0.34-1.22-0.98v0c0-0.46,0.31-0.86,0.75-0.97C17.35,18.97,20,15.79,20,12
		s-2.65-6.97-6.2-7.79c-0.44-0.1-0.75-0.51-0.75-0.97v0c0-0.64,0.6-1.13,1.22-0.98C18.7,3.29,22,7.27,22,12z"/>
</g>
</svg>
